src/main/webapp/images/icons/ico-key.svg

<?xml version="1.0" encoding="UTF-8" standalone="no"?>
<svg width="34px" height="35px" viewBox="0 0 34 35" version="1.1" xmlns="http://www.w3.org/2000/svg" xmlns:xlink="http://www.w3.org/1999/xlink" xmlns:sketch="http://www.bohemiancoding.com/sketch/ns">
    <!-- Generator: Sketch 3.3.2 (12043) - http://www.bohemiancoding.com/sketch -->
    <title>Fill 26 + Fill 27</title>
    <desc>Created with Sketch.</desc>
    <defs></defs>
    <g id="Page-1" stroke="none" stroke-width="1" fill="none" fill-rule="evenodd" sketch:type="MSPage">
        <g id="Fill-26-+-Fill-27" sketch:type="MSLayerGroup">
            <path d="M17.002,0.964 C7.779,0.964 0.264,8.399 0.181,17.639 C0.097,26.93 7.562,34.529 16.854,34.614 L17.01,34.614 C26.231,34.614 33.747,27.181 33.829,17.94 C33.912,8.648 26.447,1.049 17.156,0.965 C17.105,0.964 17.053,0.964 17.002,0.964" id="Fill-26" fill="#BADEF8" sketch:type="MSShapeGroup"></path>
            <path d="M19.761,23.57 L19.761,21.75 L17.902,21.75 C17.519,21.283 17.12,20.797 16.744,20.342 C14.807,20.941 13.043,20.951 11.34,20.094 C10.098,19.469 9.154,18.531 8.523,17.291 C7.215,14.717 7.765,11.6 9.865,9.635 C11.921,7.715 15.083,7.369 17.524,8.801 C20.185,10.361 21.185,13.182 20.277,16.789 C20.605,17.086 20.994,17.422 21.359,17.781 C22.785,19.199 24.188,20.631 25.627,22.031 C26.031,22.426 26.218,22.838 26.187,23.398 C26.157,24.027 26.196,24.66 26.173,25.289 C26.149,26.033 25.926,26.254 25.171,26.273 C24.455,26.293 23.735,26.258 23.021,26.287 C22.369,26.312 22.074,25.832 21.63,25.391 L21.63,23.57 L19.761,23.57 L19.761,23.57 Z M15.148,13.006 C15.16,11.687 14.213,10.713 12.907,10.699 C11.587,10.687 10.615,11.635 10.602,12.943 C10.588,14.262 11.536,15.236 12.844,15.246 C14.16,15.262 15.137,14.31 15.148,13.006 L15.148,13.006 Z" id="Fill-27" fill="#FFFFFF" sketch:type="MSShapeGroup"></path>
        </g>
    </g>
</svg>

<svg id="Capa_1" data-name="Capa 1" xmlns="http://www.w3.org/2000/svg" width="33.65" height="33.65" viewBox="0 0 33.65 33.65"><defs><style>.cls-1{fill:#efefef;}.cls-2{fill:#3c3c3c;}</style></defs><title>ico-key</title><g id="Page-1"><g id="Fill-26-_-Fill-27" data-name="Fill-26-+-Fill-27"><path id="Fill-26" class="cls-1" d="M17,1a16.83,16.83,0,0,0-.15,33.65H17A16.82,16.82,0,0,0,17.16,1H17" transform="translate(-0.18 -0.96)"/><path id="Fill-27" class="cls-2" d="M19.76,23.57V21.75H17.9l-1.16-1.41a6.93,6.93,0,0,1-5.4-.25,6.23,6.23,0,0,1-2.82-2.8,6.44,6.44,0,0,1,9-8.49c2.66,1.56,3.66,4.38,2.75,8,.33.3.72.63,1.08,1,1.43,1.42,2.83,2.85,4.27,4.25a1.65,1.65,0,0,1,.56,1.37c0,.63,0,1.26,0,1.89s-.25,1-1,1-1.44,0-2.15,0-.95-.45-1.39-.9V23.57ZM15.15,13a2.21,2.21,0,0,0-2.24-2.31,2.21,2.21,0,0,0-2.3,2.24,2.2,2.2,0,0,0,2.24,2.3A2.2,2.2,0,0,0,15.15,13Z" transform="translate(-0.18 -0.96)"/></g></g></svg>
